X: 42163
T: Water Under The Keel
R: jig
M: 6/8
K: Gmajor
z3 g|:"G" gdc "G" BdG|"C" GAc "G" BdG|"G" gdc "G" BdG|"C" ABc "C" def|
"G" gdc "G" BdG|"C" GAc "G" BdG|"G" gdB "C" edc|"D" dAd "G" G3:|
"D" afd "G" g3|"D" afd "G" gab|"D" afd "G" g3|"D" afd "C" cdA|
"D" afd "G" g3|"D" afd "G" gab|"D" afd "G" g3|"C" gec "C" BcA|
"D" afd "G" g3|"D" afd "G" gab|"D" afd "G" g3|"D" afd "C" cdA|
"D" afd "G" g3|"D" afd "G" gab|"C" c'ba "G" bag|"D" afd "C" BcA||
|:"G" gdc "G" BdG|"C" GAc "G" BdG|"G" gdc "G" BdG|"C" ABc "C" def|
"G" gdc "G" BdG|"C" GAc "G" BdG|"G" gdB "C" edc|"D" dAd "G" G3:|
"D" afd "G" g3|"D" afd "G" gab|"D" afd "G" g3|"D" afd "C" cdA|
"D" afd "G" gfd|"D" afd "G" gab|"D" afd "G" g3|"C" gec "C" BcA|
"D" afd "G" gfd|"D" afd "G" gab|"D" afd "G" g3|"D" afd "C" cdA|
"D" afd "G" gfd|"D" afd "G" gab|"C" c'ba "G" bag|"D" afd "C" BcA||
|:"G" gdc "G" BdG|"C" GAc "G" BdG|"G" gdc "G" BdG|"C" ABc "C" def|
"G" gdc "G" BdG|"C" GAc "G" BdG|"G" gdB "C" edc|"D" dAd "G" G3:|
|:"G" bgd "C" cdf|"G" gdc "G" Bdg|"G" bgd "C" cdf|"G" gdc "G" Bdg|
"D" afd "C" cdf|"G" gdc "G" Bdg|"D" afd "C" cdA|"D" ABd "C" cdA:|
|:"G" bgd "C" cdf|"G" gdc "G" Bdg|"G" bgd "C" cdf|"G" gdc "G" Bdg|
"D" afd "C" cdf|"G" gdc "G" Bdg|"D" afd "G" g3|"Bm" a2b "C" c'ba:|
|:"G" bgd "C" cdf|"G" gdc "G" Bdg|"G" bgd "C" cdf|"G" gdc "G" Bdg|
"D" afd "C" cdf|"G" gdc "G" Bdg|"D" afd "G" gfd|"D" afd "G" gfd:|
|:"G" gdc "G" BdG|"C" GAc "G" BdG|"G" gdB "C" edc|"D" dAd "G" G3||

